src/main/resources/static/img/placeholder-alt.svg

<?xml version="1.0" encoding="UTF-8" standalone="no"?>
<svg
   xmlns:dc="http://purl.org/dc/elements/1.1/"
   xmlns:cc="http://creativecommons.org/ns#"
   xmlns:rdf="http://www.w3.org/1999/02/22-rdf-syntax-ns#"
   xmlns:svg="http://www.w3.org/2000/svg"
   xmlns="http://www.w3.org/2000/svg"
   xmlns:sodipodi="http://sodipodi.sourceforge.net/DTD/sodipodi-0.dtd"
   xmlns:inkscape="http://www.inkscape.org/namespaces/inkscape"
   width="1024pt"
   height="1024pt"
   viewBox="0 0 1024 1024"
   version="1.1"
   id="svg15"
   sodipodi:docname="placeholder-alt.svg"
   inkscape:version="0.92.4 (5da689c313, 2019-01-14)">
  <metadata
     id="metadata21">
    <rdf:RDF>
      <cc:Work
         rdf:about="">
        <dc:format>image/svg+xml</dc:format>
        <dc:type
           rdf:resource="http://purl.org/dc/dcmitype/StillImage" />
      </cc:Work>
    </rdf:RDF>
  </metadata>
  <defs
     id="defs19" />
  <sodipodi:namedview
     pagecolor="#ffffff"
     bordercolor="#666666"
     borderopacity="1"
     objecttolerance="10"
     gridtolerance="10"
     guidetolerance="10"
     inkscape:pageopacity="0"
     inkscape:pageshadow="2"
     inkscape:window-width="640"
     inkscape:window-height="480"
     id="namedview17"
     showgrid="true"
     inkscape:zoom="0.40869141"
     inkscape:cx="682.66667"
     inkscape:cy="682.66667"
     inkscape:current-layer="svg15">
    <inkscape:grid
       type="xygrid"
       id="grid3157" />
  </sodipodi:namedview>
  <g
     id="#d4d7d6ff">
    <path
       d="M 0,0 H 1024 V 1024 H 0 V 0 m 429.84,143.72 c -21.84,5.33 -41.91,16.19 -60.24,28.98 -12.37,8.77 -24.42,18.06 -35.46,28.46 -24.42,23 -44.23,51.6 -53.88,83.94 -9.93,31.93 -9.65,65.79 -9.04,98.89 -0.07,6.35 -4.75,11.15 -8,16.18 -13.35,21.16 -22.66,44.67 -28.92,68.84 -11.15,43 -13.59,87.74 -12.24,131.98 1.42,40.89 7.22,81.75 18.81,121.04 9.64,31.3 23.39,62.06 45.24,86.83 12.42,13.99 27.39,26.06 44.78,33.27 13.56,5.91 28.25,8.6 42.91,9.96 -8.58,7.64 -15.98,16.52 -24.84,23.86 -30.76,26.66 -68.64,44.19 -107.93,54.05 -3.97,0.99 -7.69,3.35 -9.52,7.12 6.51,4.8 -5.90001,82.65 0.98999,86.88 h 554.99999 c 2.44,-1.54 1.63002,-88.12 2.71002,-90.82 -36.75,-18.74 -70.48,-43.51 -98.86,-73.48 -7.48,-7.49 -13.69,-16.11 -21.06,-23.68 24.08,-6.58 44.15,-23.11 59.44,-42.37 27.33,-33.9 44.94,-74.6 56.81,-116.23 14.36,-51.01 18.78,-105.19 9.71,-157.56 -5.81,-36.79 -16.11,-73.07 -32.72,-106.49 -7.46,-15.91 -18.74,-30.59 -20.9,-48.5 -6.27,-37.99 -21.59,-74.7 -45.51,-104.98 -12.56,-15.71 -27.59,-29.18 -42.54,-42.54 -20.91,-16.22 -46.75,-26.48 -73.35,-27.17 -5.37,-9.64 -12.89,-18 -21.46,-24.89 -12.29,-9.92 -27,-16.38 -42.07,-20.77 -28.52,-8.14 -59.14,-7.85 -87.86,-0.8 z"
       id="path2"
       inkscape:connector-curvature="0"
       style="opacity:1;fill:#d4d7d6"
       sodipodi:nodetypes="cccccccccccccccccccccccccccccccccccc" />
    <path
       fill="#d4d7d6"
       opacity="1.00"
       d=" M 560.43 700.42 C 575.02 690.58 587.52 677.99 598.80 664.57 C 599.80 670.05 600.46 675.60 601.69 681.04 C 598.04 684.31 595.16 688.29 591.80 691.83 C 579.74 704.94 566.11 716.85 550.31 725.24 C 539.36 731.01 527.35 735.07 514.96 736.02 C 500.53 737.09 486.23 732.41 473.96 725.06 C 459.31 716.42 447.06 704.46 435.03 692.61 C 435.69 687.17 436.11 681.72 436.40 676.26 C 448.08 689.20 461.29 701.08 476.79 709.26 C 489.94 716.21 505.22 719.82 520.05 717.40 C 534.59 714.92 548.28 708.66 560.43 700.42 Z"
       id="path4" />
  </g>
  <g
     id="#767677ff">
    <path
       fill="#767677"
       opacity="1.00"
       d=" M 429.84 143.72 C 458.56 136.67 489.18 136.38 517.70 144.52 C 532.77 148.91 547.48 155.37 559.77 165.29 C 568.34 172.18 575.86 180.54 581.23 190.18 C 607.83 190.87 633.67 201.13 654.58 217.35 C 669.53 230.71 684.56 244.18 697.12 259.89 C 721.04 290.17 736.36 326.88 742.63 364.87 C 744.79 382.78 756.07 397.46 763.53 413.37 C 780.14 446.79 790.44 483.07 796.25 519.86 C 805.32 572.23 800.90 626.41 786.54 677.42 C 774.67 719.05 757.06 759.75 729.73 793.65 C 714.44 812.91 694.37 829.44 670.29 836.02 C 653.00 816.16 639.34 793.33 628.53 769.38 C 615.88 741.22 607.40 711.33 601.69 681.04 C 600.46 675.60 599.80 670.05 598.80 664.57 C 619.83 639.32 635.97 610.19 647.37 579.41 C 660.22 544.69 667.38 507.97 669.81 471.06 C 670.33 452.70 670.50 434.31 669.92 415.95 C 669.70 411.68 669.82 407.32 668.71 403.16 C 668.20 401.20 666.28 400.25 664.68 399.32 C 655.89 394.45 647.08 389.22 640.20 381.77 C 630.17 372.19 622.00 360.80 615.28 348.69 C 605.76 331.62 598.91 313.24 592.02 294.99 C 586.47 280.89 577.89 268.22 568.65 256.31 C 549.69 303.00 515.21 342.39 473.92 370.81 C 446.55 390.11 413.11 398.76 380.12 401.67 C 367.69 402.71 355.19 403.23 342.71 402.84 C 337.70 444.97 343.49 487.83 355.73 528.27 C 365.23 559.37 378.22 589.41 394.31 617.66 C 406.27 638.57 420.14 658.46 436.40 676.26 C 436.11 681.72 435.69 687.17 435.03 692.61 C 430.38 733.48 421.39 774.53 402.22 811.24 C 394.25 825.77 385.69 840.38 373.80 852.09 C 359.14 850.73 344.45 848.04 330.89 842.13 C 313.50 834.92 298.53 822.85 286.11 808.86 C 264.26 784.09 250.51 753.33 240.87 722.03 C 229.28 682.74 223.48 641.88 222.06 600.99 C 220.71 556.75 223.15 512.01 234.30 469.01 C 240.56 444.84 249.87 421.33 263.22 400.17 C 266.47 395.14 271.15 390.34 271.22 383.99 C 270.61 350.89 270.33 317.03 280.26 285.10 C 289.91 252.76 309.72 224.16 334.14 201.16 C 345.18 190.76 357.23 181.47 369.60 172.70 C 387.93 159.91 408.00 149.05 429.84 143.72 Z"
       id="path7" />
  </g>
  <g
     id="#ffffffff">
    <path
       fill="#ffffff"
       opacity="1.00"
       d=" M 473.92 370.81 C 515.21 342.39 549.69 303.00 568.65 256.31 C 577.89 268.22 586.47 280.89 592.02 294.99 C 598.91 313.24 605.76 331.62 615.28 348.69 C 622.00 360.80 630.17 372.19 640.20 381.77 C 647.08 389.22 655.89 394.45 664.68 399.32 C 666.28 400.25 668.20 401.20 668.71 403.16 C 669.82 407.32 669.70 411.68 669.92 415.95 C 670.50 434.31 670.33 452.70 669.81 471.06 C 667.38 507.97 660.22 544.69 647.37 579.41 C 635.97 610.19 619.83 639.32 598.80 664.57 C 587.52 677.99 575.02 690.58 560.43 700.42 C 548.28 708.66 534.59 714.92 520.05 717.40 C 505.22 719.82 489.94 716.21 476.79 709.26 C 461.29 701.08 448.08 689.20 436.40 676.26 C 420.14 658.46 406.27 638.57 394.31 617.66 C 378.22 589.41 365.23 559.37 355.73 528.27 C 343.49 487.83 337.70 444.97 342.71 402.84 C 355.19 403.23 367.69 402.71 380.12 401.67 C 413.11 398.76 446.55 390.11 473.92 370.81 Z"
       id="path10" />
  </g>
</svg>

<?xml version="1.0" encoding="UTF-8" ?>
<!DOCTYPE svg PUBLIC "-//W3C//DTD SVG 1.1//EN" "http://www.w3.org/Graphics/SVG/1.1/DTD/svg11.dtd">
<svg width="1024pt" height="1024pt" viewBox="0 0 1024 1024" version="1.1" xmlns="http://www.w3.org/2000/svg">
<g id="#d4d7d6ff">
<path fill="#d4d7d6" opacity="1.00" d=" M 0.00 0.00 L 1024.00 0.00 L 1024.00 1024.00 L 0.00 1024.00 L 0.00 0.00 M 429.84 143.72 C 408.00 149.05 387.93 159.91 369.60 172.70 C 357.23 181.47 345.18 190.76 334.14 201.16 C 309.72 224.16 289.91 252.76 280.26 285.10 C 270.33 317.03 270.61 350.89 271.22 383.99 C 271.15 390.34 266.47 395.14 263.22 400.17 C 249.87 421.33 240.56 444.84 234.30 469.01 C 223.15 512.01 220.71 556.75 222.06 600.99 C 223.48 641.88 229.28 682.74 240.87 722.03 C 250.51 753.33 264.26 784.09 286.11 808.86 C 298.53 822.85 313.50 834.92 330.89 842.13 C 344.45 848.04 359.14 850.73 373.80 852.09 C 365.22 859.73 357.82 868.61 348.96 875.95 C 318.20 902.61 280.32 920.14 241.03 930.00 C 237.06 930.99 233.34 933.35 231.51 937.12 C 238.02 941.92 245.07 945.93 251.96 950.16 C 345.52 1005.87 457.47 1029.84 565.64 1017.54 C 643.33 1008.88 719.10 982.28 784.66 939.61 C 787.10 938.07 789.13 935.88 790.21 933.18 C 753.46 914.44 719.73 889.67 691.35 859.70 C 683.87 852.21 677.66 843.59 670.29 836.02 C 694.37 829.44 714.44 812.91 729.73 793.65 C 757.06 759.75 774.67 719.05 786.54 677.42 C 800.90 626.41 805.32 572.23 796.25 519.86 C 790.44 483.07 780.14 446.79 763.53 413.37 C 756.07 397.46 744.79 382.78 742.63 364.87 C 736.36 326.88 721.04 290.17 697.12 259.89 C 684.56 244.18 669.53 230.71 654.58 217.35 C 633.67 201.13 607.83 190.87 581.23 190.18 C 575.86 180.54 568.34 172.18 559.77 165.29 C 547.48 155.37 532.77 148.91 517.70 144.52 C 489.18 136.38 458.56 136.67 429.84 143.72 Z" />
<path fill="#d4d7d6" opacity="1.00" d=" M 560.43 700.42 C 575.02 690.58 587.52 677.99 598.80 664.57 C 599.80 670.05 600.46 675.60 601.69 681.04 C 598.04 684.31 595.16 688.29 591.80 691.83 C 579.74 704.94 566.11 716.85 550.31 725.24 C 539.36 731.01 527.35 735.07 514.96 736.02 C 500.53 737.09 486.23 732.41 473.96 725.06 C 459.31 716.42 447.06 704.46 435.03 692.61 C 435.69 687.17 436.11 681.72 436.40 676.26 C 448.08 689.20 461.29 701.08 476.79 709.26 C 489.94 716.21 505.22 719.82 520.05 717.40 C 534.59 714.92 548.28 708.66 560.43 700.42 Z" />
</g>
<g id="#767677ff">
<path fill="#767677" opacity="1.00" d=" M 429.84 143.72 C 458.56 136.67 489.18 136.38 517.70 144.52 C 532.77 148.91 547.48 155.37 559.77 165.29 C 568.34 172.18 575.86 180.54 581.23 190.18 C 607.83 190.87 633.67 201.13 654.58 217.35 C 669.53 230.71 684.56 244.18 697.12 259.89 C 721.04 290.17 736.36 326.88 742.63 364.87 C 744.79 382.78 756.07 397.46 763.53 413.37 C 780.14 446.79 790.44 483.07 796.25 519.86 C 805.32 572.23 800.90 626.41 786.54 677.42 C 774.67 719.05 757.06 759.75 729.73 793.65 C 714.44 812.91 694.37 829.44 670.29 836.02 C 653.00 816.16 639.34 793.33 628.53 769.38 C 615.88 741.22 607.40 711.33 601.69 681.04 C 600.46 675.60 599.80 670.05 598.80 664.57 C 619.83 639.32 635.97 610.19 647.37 579.41 C 660.22 544.69 667.38 507.97 669.81 471.06 C 670.33 452.70 670.50 434.31 669.92 415.95 C 669.70 411.68 669.82 407.32 668.71 403.16 C 668.20 401.20 666.28 400.25 664.68 399.32 C 655.89 394.45 647.08 389.22 640.20 381.77 C 630.17 372.19 622.00 360.80 615.28 348.69 C 605.76 331.62 598.91 313.24 592.02 294.99 C 586.47 280.89 577.89 268.22 568.65 256.31 C 549.69 303.00 515.21 342.39 473.92 370.81 C 446.55 390.11 413.11 398.76 380.12 401.67 C 367.69 402.71 355.19 403.23 342.71 402.84 C 337.70 444.97 343.49 487.83 355.73 528.27 C 365.23 559.37 378.22 589.41 394.31 617.66 C 406.27 638.57 420.14 658.46 436.40 676.26 C 436.11 681.72 435.69 687.17 435.03 692.61 C 430.38 733.48 421.39 774.53 402.22 811.24 C 394.25 825.77 385.69 840.38 373.80 852.09 C 359.14 850.73 344.45 848.04 330.89 842.13 C 313.50 834.92 298.53 822.85 286.11 808.86 C 264.26 784.09 250.51 753.33 240.87 722.03 C 229.28 682.74 223.48 641.88 222.06 600.99 C 220.71 556.75 223.15 512.01 234.30 469.01 C 240.56 444.84 249.87 421.33 263.22 400.17 C 266.47 395.14 271.15 390.34 271.22 383.99 C 270.61 350.89 270.33 317.03 280.26 285.10 C 289.91 252.76 309.72 224.16 334.14 201.16 C 345.18 190.76 357.23 181.47 369.60 172.70 C 387.93 159.91 408.00 149.05 429.84 143.72 Z" />
</g>
<g id="#ffffffff">
<path fill="#ffffff" opacity="1.00" d=" M 473.92 370.81 C 515.21 342.39 549.69 303.00 568.65 256.31 C 577.89 268.22 586.47 280.89 592.02 294.99 C 598.91 313.24 605.76 331.62 615.28 348.69 C 622.00 360.80 630.17 372.19 640.20 381.77 C 647.08 389.22 655.89 394.45 664.68 399.32 C 666.28 400.25 668.20 401.20 668.71 403.16 C 669.82 407.32 669.70 411.68 669.92 415.95 C 670.50 434.31 670.33 452.70 669.81 471.06 C 667.38 507.97 660.22 544.69 647.37 579.41 C 635.97 610.19 619.83 639.32 598.80 664.57 C 587.52 677.99 575.02 690.58 560.43 700.42 C 548.28 708.66 534.59 714.92 520.05 717.40 C 505.22 719.82 489.94 716.21 476.79 709.26 C 461.29 701.08 448.08 689.20 436.40 676.26 C 420.14 658.46 406.27 638.57 394.31 617.66 C 378.22 589.41 365.23 559.37 355.73 528.27 C 343.49 487.83 337.70 444.97 342.71 402.84 C 355.19 403.23 367.69 402.71 380.12 401.67 C 413.11 398.76 446.55 390.11 473.92 370.81 Z" />
<path fill="#ffffff" opacity="1.00" d=" M 591.80 691.83 C 595.16 688.29 598.04 684.31 601.69 681.04 C 607.40 711.33 615.88 741.22 628.53 769.38 C 639.34 793.33 653.00 816.16 670.29 836.02 C 677.66 843.59 683.87 852.21 691.35 859.70 C 719.73 889.67 753.46 914.44 790.21 933.18 C 789.13 935.88 787.10 938.07 784.66 939.61 C 719.10 982.28 643.33 1008.88 565.64 1017.54 C 457.47 1029.84 345.52 1005.87 251.96 950.16 C 245.07 945.93 238.02 941.92 231.51 937.12 C 233.34 933.35 237.06 930.99 241.03 930.00 C 280.32 920.14 318.20 902.61 348.96 875.95 C 357.82 868.61 365.22 859.73 373.80 852.09 C 385.69 840.38 394.25 825.77 402.22 811.24 C 421.39 774.53 430.38 733.48 435.03 692.61 C 447.06 704.46 459.31 716.42 473.96 725.06 C 486.23 732.41 500.53 737.09 514.96 736.02 C 527.35 735.07 539.36 731.01 550.31 725.24 C 566.11 716.85 579.74 704.94 591.80 691.83 Z" />
</g>
</svg>
